images/Cpollo.svg

<svg height="250" viewBox="0 0 250 250" width="250" xmlns="http://www.w3.org/2000/svg"><path d="m0 0h250v250h-250z" fill="#fff"/><path d="m125.1875 48.59375 47.3125 27.371094v55.3125l-47.3125 27.84375-47.6875-27.089844v-56.824219zm0 0" fill="#44aaf4"/><path d="m100 89.007812 24.136719-14.019531 24.40625 14.019531-13.628907 9.597657-10.640624-7.707031-24.273438 13.101562zm0 0" fill="#fff"/><path d="m100 108.359375 12.5-6.726563v8.425782l11.070312 6.253906 11.050782-6.253906 13.785156 9.09375-24.203125 14.300781-24.203125-14.300781zm0 0" fill="#fff"/><g fill="#44aaf4"><path d="m31.035156 201.742188c-2.226562 0-4.285156-.417969-6.175781-1.253907-1.890625-.832031-3.53125-1.976562-4.921875-3.425781s-2.476562-3.175781-3.253906-5.164062c-.777344-1.992188-1.164063-4.144532-1.164063-6.457032 0-2.347656.386719-4.484375 1.164063-6.417968.777344-1.933594 1.863281-3.582032 3.253906-4.945313 1.390625-1.359375 3.03125-2.417969 4.921875-3.164063 1.890625-.746093 3.949219-1.121093 6.175781-1.121093h17.316406v5.578125h-17.316406c-1.4375 0-2.761718.261718-3.976562.769531-1.21875.515625-2.265625 1.226563-3.144532 2.132813-.878906.910156-1.566406 1.996093-2.0625 3.257812-.5 1.257812-.75 2.652344-.75 4.171875 0 1.496094.25 2.886719.75 4.175781.496094 1.292969 1.1875 2.394532 2.0625 3.316406.882813.925782 1.929688 1.648438 3.144532 2.175782s2.539062.789062 3.976562.789062h17.316406v5.582032zm0 0"/><path d="m62.5 192.863281v-5.402343h12.832031c1.964844 0 3.492188-.558594 4.59375-1.671876 1.097657-1.113281 1.648438-2.578124 1.648438-4.394531 0-1.84375-.550781-3.308593-1.648438-4.398437-1.097656-1.082032-2.628906-1.625-4.59375-1.625h-16.917969v26.371094h-5.539062v-31.949219h22.453125c1.847656 0 3.496094.269531 4.945313.8125 1.453124.542969 2.675781 1.304687 3.667968 2.285156.996094.984375 1.761719 2.175781 2.285156 3.585937.527344 1.402344.789063 2.984376.789063 4.742188 0 1.730469-.261719 3.300781-.789063 4.722656-.523437 1.421875-1.289062 2.648438-2.285156 3.671875-.992187 1.027344-2.214844 1.824219-3.667968 2.394531-1.449219.570313-3.097657.859376-4.945313.859376h-12.828125zm0 0"/><path d="m105.566406 201.742188c-2.226562 0-4.285156-.417969-6.175781-1.253907-1.886719-.832031-3.53125-1.976562-4.921875-3.425781s-2.472656-3.175781-3.25-5.164062c-.777344-1.992188-1.167969-4.144532-1.167969-6.457032 0-2.347656.390625-4.484375 1.167969-6.417968.777344-1.933594 1.859375-3.582032 3.25-4.945313 1.390625-1.359375 3.035156-2.417969 4.921875-3.164063 1.890625-.746093 3.949219-1.121093 6.175781-1.121093h7.777344c2.316406 0 4.429688.378906 6.351562 1.140625 1.917969.765625 3.566407 1.832031 4.945313 3.207031 1.375 1.382813 2.445313 3.03125 3.207031 4.949219.761719 1.917968 1.140625 4.035156 1.140625 6.351562 0 2.3125-.386719 4.464844-1.160156 6.457032-.78125 1.992187-1.863281 3.714843-3.253906 5.164062s-3.039063 2.59375-4.945313 3.425781c-1.902344.835938-3.996094 1.253907-6.285156 1.253907zm7.777344-5.582032c1.464844 0 2.8125-.261718 4.042969-.789062s2.292969-1.25 3.1875-2.175782c.894531-.921874 1.589843-2.027343 2.085937-3.316406.496094-1.285156.746094-2.679687.746094-4.175781 0-1.492187-.25-2.875-.746094-4.152344-.496094-1.273437-1.191406-2.367187-2.085937-3.277343-.894531-.902344-1.957031-1.617188-3.1875-2.132813-1.230469-.507813-2.578125-.769531-4.042969-.769531h-7.777344c-1.433594 0-2.757812.261718-3.976562.769531-1.214844.515625-2.261719 1.226563-3.140625 2.132813-.882813.910156-1.570313 1.996093-2.066407 3.257812-.496093 1.257812-.746093 2.652344-.746093 4.171875 0 1.496094.25 2.886719.746093 4.175781.496094 1.292969 1.1875 2.394532 2.066407 3.316406.878906.925782 1.925781 1.648438 3.140625 2.175782s2.542968.789062 3.976562.789062zm0 0"/><path d="m133.515625 201.742188v-31.949219h5.578125v26.367187h21.492188v5.582032zm0 0"/><path d="m164.585938 201.742188v-31.949219h5.578124v26.367187h21.492188v5.582032zm0 0"/><path d="m210.246094 201.742188c-2.230469 0-4.285156-.417969-6.171875-1.253907-1.894531-.832031-3.53125-1.976562-4.925781-3.425781-1.394532-1.449219-2.476563-3.175781-3.25-5.164062-.785157-1.992188-1.167969-4.144532-1.167969-6.457032 0-2.347656.382812-4.484375 1.167969-6.417968.773437-1.933594 1.855468-3.582032 3.25-4.945313 1.394531-1.359375 3.03125-2.417969 4.925781-3.164063 1.886719-.746093 3.941406-1.121093 6.171875-1.121093h7.777344c2.316406 0 4.429687.378906 6.347656 1.140625 1.925781.765625 3.570312 1.832031 4.949218 3.207031 1.378907 1.382813 2.445313 3.03125 3.207032 4.949219.761718 1.917968 1.144531 4.035156 1.144531 6.351562 0 2.3125-.390625 4.464844-1.167969 6.457032-.777344 1.992187-1.859375 3.714843-3.253906 5.164062-1.390625 1.449219-3.039062 2.59375-4.945312 3.425781-1.902344.835938-3.996094 1.253907-6.28125 1.253907zm7.777344-5.582032c1.464843 0 2.8125-.261718 4.042968-.789062 1.230469-.527344 2.292969-1.25 3.183594-2.175782.890625-.921874 1.589844-2.027343 2.089844-3.316406.496094-1.289062.746094-2.679687.746094-4.175781 0-1.492187-.25-2.875-.746094-4.152344-.5-1.273437-1.199219-2.367187-2.089844-3.277343-.890625-.902344-1.953125-1.617188-3.183594-2.132813-1.230468-.507813-2.578125-.769531-4.042968-.769531h-7.777344c-1.433594 0-2.757813.261718-3.980469.769531-1.214844.515625-2.261719 1.226563-3.140625 2.132813-.878906.910156-1.566406 1.996093-2.066406 3.257812-.496094 1.257812-.746094 2.652344-.746094 4.171875 0 1.496094.25 2.886719.746094 4.175781.5 1.292969 1.1875 2.394532 2.066406 3.316406.878906.925782 1.925781 1.648438 3.140625 2.175782 1.21875.527344 2.546875.789062 3.980469.789062zm0 0"/></g></svg>

<!-- Generator: Adobe Illustrator 16.0.0, SVG Export Plug-In . SVG Version: 6.00 Build 0)  -->
<svg xmlns="http://www.w3.org/2000/svg" xmlns:xlink="http://www.w3.org/1999/xlink" width="250px" height="250px" viewBox="0 0 250 250" version="1.1">
<g id="surface1">
<rect x="0" y="0" width="250" height="250" style="fill:rgb(100%,100%,100%);fill-opacity:1;stroke:none;"/>
<path style=" stroke:none;fill-rule:nonzero;fill:rgb(26.666668%,66.666669%,95.686275%);fill-opacity:1;" d="M 125.1875 48.59375 L 172.5 75.964844 L 172.5 131.277344 L 125.1875 159.121094 L 77.5 132.03125 L 77.5 75.207031 Z M 125.1875 48.59375 "/>
<path style=" stroke:none;fill-rule:nonzero;fill:rgb(100%,100%,100%);fill-opacity:1;" d="M 100 89.007812 L 124.136719 74.988281 L 148.542969 89.007812 L 134.914062 98.605469 L 124.273438 90.898438 L 100 104 Z M 100 89.007812 "/>
<path style=" stroke:none;fill-rule:nonzero;fill:rgb(100%,100%,100%);fill-opacity:1;" d="M 100 108.359375 L 112.5 101.632812 L 112.5 110.058594 L 123.570312 116.3125 L 134.621094 110.058594 L 148.40625 119.152344 L 124.203125 133.453125 L 100 119.152344 Z M 100 108.359375 "/>
<path style=" stroke:none;fill-rule:nonzero;fill:rgb(26.666668%,66.666669%,95.686275%);fill-opacity:1;" d="M 31.035156 201.742188 C 28.808594 201.742188 26.75 201.324219 24.859375 200.488281 C 22.96875 199.65625 21.328125 198.511719 19.9375 197.0625 C 18.546875 195.613281 17.460938 193.886719 16.683594 191.898438 C 15.90625 189.90625 15.519531 187.753906 15.519531 185.441406 C 15.519531 183.09375 15.90625 180.957031 16.683594 179.023438 C 17.460938 177.089844 18.546875 175.441406 19.9375 174.078125 C 21.328125 172.71875 22.96875 171.660156 24.859375 170.914062 C 26.75 170.167969 28.808594 169.792969 31.035156 169.792969 L 48.351562 169.792969 L 48.351562 175.371094 L 31.035156 175.371094 C 29.597656 175.371094 28.273438 175.632812 27.058594 176.140625 C 25.839844 176.65625 24.792969 177.367188 23.914062 178.273438 C 23.035156 179.183594 22.347656 180.269531 21.851562 181.53125 C 21.351562 182.789062 21.101562 184.183594 21.101562 185.703125 C 21.101562 187.199219 21.351562 188.589844 21.851562 189.878906 C 22.347656 191.171875 23.039062 192.273438 23.914062 193.195312 C 24.796875 194.121094 25.84375 194.84375 27.058594 195.371094 C 28.273438 195.898438 29.597656 196.160156 31.035156 196.160156 L 48.351562 196.160156 L 48.351562 201.742188 Z M 31.035156 201.742188 "/>
<path style=" stroke:none;fill-rule:nonzero;fill:rgb(26.666668%,66.666669%,95.686275%);fill-opacity:1;" d="M 62.5 192.863281 L 62.5 187.460938 L 75.332031 187.460938 C 77.296875 187.460938 78.824219 186.902344 79.925781 185.789062 C 81.023438 184.675781 81.574219 183.210938 81.574219 181.394531 C 81.574219 179.550781 81.023438 178.085938 79.925781 176.996094 C 78.828125 175.914062 77.296875 175.371094 75.332031 175.371094 L 58.414062 175.371094 L 58.414062 201.742188 L 52.875 201.742188 L 52.875 169.792969 L 75.328125 169.792969 C 77.175781 169.792969 78.824219 170.0625 80.273438 170.605469 C 81.726562 171.148438 82.949219 171.910156 83.941406 172.890625 C 84.9375 173.875 85.703125 175.066406 86.226562 176.476562 C 86.753906 177.878906 87.015625 179.460938 87.015625 181.21875 C 87.015625 182.949219 86.753906 184.519531 86.226562 185.941406 C 85.703125 187.363281 84.9375 188.589844 83.941406 189.613281 C 82.949219 190.640625 81.726562 191.4375 80.273438 192.007812 C 78.824219 192.578125 77.175781 192.867188 75.328125 192.867188 L 62.5 192.867188 Z M 62.5 192.863281 "/>
<path style=" stroke:none;fill-rule:nonzero;fill:rgb(26.666668%,66.666669%,95.686275%);fill-opacity:1;" d="M 105.566406 201.742188 C 103.339844 201.742188 101.28125 201.324219 99.390625 200.488281 C 97.503906 199.65625 95.859375 198.511719 94.46875 197.0625 C 93.078125 195.613281 91.996094 193.886719 91.21875 191.898438 C 90.441406 189.90625 90.050781 187.753906 90.050781 185.441406 C 90.050781 183.09375 90.441406 180.957031 91.21875 179.023438 C 91.996094 177.089844 93.078125 175.441406 94.46875 174.078125 C 95.859375 172.71875 97.503906 171.660156 99.390625 170.914062 C 101.28125 170.167969 103.339844 169.792969 105.566406 169.792969 L 113.34375 169.792969 C 115.660156 169.792969 117.773438 170.171875 119.695312 170.933594 C 121.613281 171.699219 123.261719 172.765625 124.640625 174.140625 C 126.015625 175.523438 127.085938 177.171875 127.847656 179.089844 C 128.609375 181.007812 128.988281 183.125 128.988281 185.441406 C 128.988281 187.753906 128.601562 189.90625 127.828125 191.898438 C 127.046875 193.890625 125.964844 195.613281 124.574219 197.0625 C 123.183594 198.511719 121.535156 199.65625 119.628906 200.488281 C 117.726562 201.324219 115.632812 201.742188 113.34375 201.742188 Z M 113.34375 196.160156 C 114.808594 196.160156 116.15625 195.898438 117.386719 195.371094 C 118.617188 194.84375 119.679688 194.121094 120.574219 193.195312 C 121.46875 192.273438 122.164062 191.167969 122.660156 189.878906 C 123.15625 188.59375 123.40625 187.199219 123.40625 185.703125 C 123.40625 184.210938 123.15625 182.828125 122.660156 181.550781 C 122.164062 180.277344 121.46875 179.183594 120.574219 178.273438 C 119.679688 177.371094 118.617188 176.65625 117.386719 176.140625 C 116.15625 175.632812 114.808594 175.371094 113.34375 175.371094 L 105.566406 175.371094 C 104.132812 175.371094 102.808594 175.632812 101.589844 176.140625 C 100.375 176.65625 99.328125 177.367188 98.449219 178.273438 C 97.566406 179.183594 96.878906 180.269531 96.382812 181.53125 C 95.886719 182.789062 95.636719 184.183594 95.636719 185.703125 C 95.636719 187.199219 95.886719 188.589844 96.382812 189.878906 C 96.878906 191.171875 97.570312 192.273438 98.449219 193.195312 C 99.328125 194.121094 100.375 194.84375 101.589844 195.371094 C 102.804688 195.898438 104.132812 196.160156 105.566406 196.160156 Z M 113.34375 196.160156 "/>
<path style=" stroke:none;fill-rule:nonzero;fill:rgb(26.666668%,66.666669%,95.686275%);fill-opacity:1;" d="M 133.515625 201.742188 L 133.515625 169.792969 L 139.09375 169.792969 L 139.09375 196.160156 L 160.585938 196.160156 L 160.585938 201.742188 Z M 133.515625 201.742188 "/>
<path style=" stroke:none;fill-rule:nonzero;fill:rgb(26.666668%,66.666669%,95.686275%);fill-opacity:1;" d="M 164.585938 201.742188 L 164.585938 169.792969 L 170.164062 169.792969 L 170.164062 196.160156 L 191.65625 196.160156 L 191.65625 201.742188 Z M 164.585938 201.742188 "/>
<path style=" stroke:none;fill-rule:nonzero;fill:rgb(26.666668%,66.666669%,95.686275%);fill-opacity:1;" d="M 210.246094 201.742188 C 208.015625 201.742188 205.960938 201.324219 204.074219 200.488281 C 202.179688 199.65625 200.542969 198.511719 199.148438 197.0625 C 197.753906 195.613281 196.671875 193.886719 195.898438 191.898438 C 195.113281 189.90625 194.730469 187.753906 194.730469 185.441406 C 194.730469 183.09375 195.113281 180.957031 195.898438 179.023438 C 196.671875 177.089844 197.753906 175.441406 199.148438 174.078125 C 200.542969 172.71875 202.179688 171.660156 204.074219 170.914062 C 205.960938 170.167969 208.015625 169.792969 210.246094 169.792969 L 218.023438 169.792969 C 220.339844 169.792969 222.453125 170.171875 224.371094 170.933594 C 226.296875 171.699219 227.941406 172.765625 229.320312 174.140625 C 230.699219 175.523438 231.765625 177.171875 232.527344 179.089844 C 233.289062 181.007812 233.671875 183.125 233.671875 185.441406 C 233.671875 187.753906 233.28125 189.90625 232.503906 191.898438 C 231.726562 193.890625 230.644531 195.613281 229.25 197.0625 C 227.859375 198.511719 226.210938 199.65625 224.304688 200.488281 C 222.402344 201.324219 220.308594 201.742188 218.023438 201.742188 Z M 218.023438 196.160156 C 219.488281 196.160156 220.835938 195.898438 222.066406 195.371094 C 223.296875 194.84375 224.359375 194.121094 225.25 193.195312 C 226.140625 192.273438 226.839844 191.167969 227.339844 189.878906 C 227.835938 188.589844 228.085938 187.199219 228.085938 185.703125 C 228.085938 184.210938 227.835938 182.828125 227.339844 181.550781 C 226.839844 180.277344 226.140625 179.183594 225.25 178.273438 C 224.359375 177.371094 223.296875 176.65625 222.066406 176.140625 C 220.835938 175.632812 219.488281 175.371094 218.023438 175.371094 L 210.246094 175.371094 C 208.8125 175.371094 207.488281 175.632812 206.265625 176.140625 C 205.050781 176.65625 204.003906 177.367188 203.125 178.273438 C 202.246094 179.183594 201.558594 180.269531 201.058594 181.53125 C 200.5625 182.789062 200.3125 184.183594 200.3125 185.703125 C 200.3125 187.199219 200.5625 188.589844 201.058594 189.878906 C 201.558594 191.171875 202.246094 192.273438 203.125 193.195312 C 204.003906 194.121094 205.050781 194.84375 206.265625 195.371094 C 207.484375 195.898438 208.8125 196.160156 210.246094 196.160156 Z M 218.023438 196.160156 "/>
</g>
</svg>
